dist/icons/svgs/split-solid.svg

<svg xmlns="http://www.w3.org/2000/svg" width="24" height="24" fill="currentcolor" class="icon-split-solid" viewBox="0 0 24 24">
  <path d="M17.7422 3.36716C18.2109 3.17185 18.7578 3.28903 19.1094 3.6406L21.6094 6.1406C21.8438 6.37497 22 6.68747 22 6.99997C22 7.35153 21.8438 7.66403 21.6094 7.89841L19.1094 10.3984C18.7578 10.75 18.2109 10.8672 17.7422 10.6718C17.2734 10.4765 17 10.0078 17 9.49997V8.24997H15.5156C15.2031 8.24997 14.8516 8.40622 14.6172 8.6406L11.2578 12L14.6172 15.3984C14.8516 15.6328 15.2031 15.75 15.5156 15.75H17V14.5C17 14.0312 17.2734 13.5625 17.7422 13.3672C18.2109 13.1718 18.7578 13.289 19.1094 13.6406L21.6094 16.1406C21.8438 16.375 22 16.6875 22 17C22 17.3515 21.8438 17.664 21.6094 17.8984L19.1094 20.3984C18.7578 20.75 18.2109 20.8672 17.7422 20.6718C17.2734 20.4765 17 20.0078 17 19.5V18.25H15.5156C14.5391 18.25 13.5625 17.8593 12.8594 17.1562L8.95312 13.25H3.25C2.54688 13.25 2 12.7031 2 12C2 11.3359 2.54688 10.75 3.25 10.75H8.95312L12.8594 6.88278C13.5625 6.17966 14.5391 5.74997 15.5156 5.74997H17V4.49997C17 4.03122 17.2734 3.56247 17.7422 3.36716Z"/>
</svg>

<svg xmlns="http://www.w3.org/2000/svg" width="24" height="24" fill="currentColor" class="icon-split-solid" viewBox="0 0 24 24">
  <path d="M17.742 3.367a1.26 1.26 0 0 1 1.367.274l2.5 2.5c.235.234.391.546.391.859 0 .352-.156.664-.39.898l-2.5 2.5a1.26 1.26 0 0 1-1.368.274C17.273 10.476 17 10.008 17 9.5V8.25h-1.484c-.313 0-.664.156-.899.39L11.257 12l3.36 3.398c.235.235.586.352.899.352H17V14.5c0-.469.273-.937.742-1.133a1.26 1.26 0 0 1 1.367.274l2.5 2.5c.235.234.391.547.391.859 0 .352-.156.664-.39.898l-2.5 2.5a1.26 1.26 0 0 1-1.368.274c-.469-.195-.742-.664-.742-1.172v-1.25h-1.484c-.977 0-1.953-.39-2.657-1.094L8.953 13.25H3.25C2.547 13.25 2 12.703 2 12c0-.664.547-1.25 1.25-1.25h5.703l3.906-3.867c.704-.703 1.68-1.133 2.657-1.133H17V4.5c0-.469.273-.938.742-1.133"/>
</svg>
